X: 3440
T: Beti O Lansanffraid
R: slip jig
M: 9/8
K: Gminor
d/c/|BAG GAG GAB|AGA FGA c2 d/c/|BAG GAG GAB|
cdc cBA B2:|:F|Bcd edc dfF|Bcd edc d2 F|
Bcd edc dfd|cdc cBA B2 d/c/|BAG GAG GAB|cdc cBA G2:|

